X:166 
T:Otter's Hole (reel), The 
T:Otter's Holt, Aughadarra
B:CRE3.185	(Poll an Mhadra Uisce)
C:Junior Crehan
F:file ID: cre.3/166otter_h
N:1:Normally played a step up in B minor. I've added a transposed
version in that key. 
N:2:Although we have otters visiting our back yard pond occasionally,
I'm not sure what an otter's "holt" is - but enough people spell the 
tune name that way for me to show it in the title.
R:reel
L:1/8
Q:180
M:C
K:Am
EAAG EDEA|G2EA GAc2|EAAG EDEG| (3ABc BG A3z |
EAAG EDEG|G2EA GAc2|eage deed|cAGE A3 z:|
c2 (3edc gceg|a2ge decG|cd (3edc gceg|aege d3e|
c2 (3edc gceg|a2ge decd|eAAG EDEG|EAAG A3z:|

%%%

